packages/bpk-svgs/src/icons/sm/leisure.svg

<svg xmlns="http://www.w3.org/2000/svg" viewBox="0 0 18 18" enable-background="new 0 0 18 18"><path d="M6.985 5.333l-.188.5c-.042.103-.142.169-.253.167h-2.088c-.111.002-.211-.064-.253-.167l-.188-.5c-.061-.163.069-.333.253-.333h2.463c.185 0 .315.17.254.333zm-1.485-4.333c-.673 0-1.241.542-1.328 1.265l-.17 1.428c-.019.163.098.307.249.307h2.497c.152 0 .269-.144.25-.307l-.17-1.428c-.087-.723-.655-1.265-1.328-1.265zm-2.505 10.98c0 1.695.232 3.24.613 4.426.115.357.417.594.759.594h2.256c.342 0 .645-.237.759-.594.381-1.186.613-2.731.613-4.426 0-1.877-.81-3.571-1.318-4.796-.04-.11-.144-.183-.261-.184h-1.842c-.117.001-.22.075-.261.184-.508 1.225-1.318 2.919-1.318 4.796zm7.2-4.58c-.768 0-1.488.19-2.131.511.457 1.13.931 2.528.931 4.069 0 1.689-.228 3.332-.637 4.644.581.246 1.206.374 1.837.376 2.651 0 4.8-2.149 4.8-4.8s-2.149-4.8-4.8-4.8zm1.805 4.6c-.552 0-1-.448-1-1s.448-1 1-1 1 .448 1 1-.448 1-1 1z"/></svg>

<svg xmlns="http://www.w3.org/2000/svg" viewBox="0 0 18 18"><path d="M6.985 5.333l-.188.5A.267.267 0 0 1 6.544 6H4.456a.267.267 0 0 1-.253-.167l-.188-.5C3.954 5.17 4.084 5 4.268 5h2.463c.185 0 .315.17.254.333zM5.5 1c-.673 0-1.241.542-1.328 1.265l-.17 1.428c-.019.163.098.307.249.307h2.497c.152 0 .269-.144.25-.307l-.17-1.428C6.741 1.542 6.173 1 5.5 1zM2.995 11.98c0 1.695.232 3.24.613 4.426.115.357.417.594.759.594h2.256c.342 0 .645-.237.759-.594.381-1.186.613-2.731.613-4.426 0-1.877-.81-3.571-1.318-4.796A.28.28 0 0 0 6.416 7H4.574a.282.282 0 0 0-.261.184c-.508 1.225-1.318 2.919-1.318 4.796zm7.2-4.58c-.768 0-1.488.19-2.131.511.457 1.13.931 2.528.931 4.069 0 1.689-.228 3.332-.637 4.644a4.752 4.752 0 0 0 1.837.376 4.8 4.8 0 1 0 0-9.6zM12 12a1 1 0 1 1 0-2 1 1 0 0 1 0 2z"/></svg>
